app/img/main/ic_software.svg

<svg width="89" height="79" viewBox="0 0 89 79" fill="none" xmlns="http://www.w3.org/2000/svg">
    <rect width="89" height="79" rx="20" fill="url(#paint0_linear)"/>
    <rect x="0.5" y="0.5" width="88" height="78" rx="19.5" stroke="#FAFAFA" stroke-opacity="0.1"/>
    <path d="M50 30L40 53" stroke="#022AF0" stroke-width="5" stroke-linecap="round"/>
    <path d="M34.844 27.6213C33.9026 26.7583 32.4184 26.7993 31.5297 27.7135L19.6402 39.9346C18.7867 40.8114 18.7867 42.1819 19.6396 43.0586L31.5285 55.286C31.9899 55.7605 32.6112 56 33.2343 56C33.8117 56 34.3903 55.7946 34.8434 55.3793C35.7854 54.5168 35.8282 53.0763 34.9395 52.1626L24.5694 41.4975L34.9389 30.8386C35.8282 29.9244 35.7854 28.4844 34.844 27.6213ZM70.3607 39.9415L58.4706 27.7141C57.5814 26.801 56.0977 26.7583 55.1563 27.6208C54.2143 28.4838 54.171 29.9238 55.0602 30.8381L65.4303 41.5032L55.0608 52.162C54.1715 53.0757 54.2143 54.5162 55.1557 55.3787C55.6083 55.794 56.1874 56 56.7648 56C57.3879 56 58.0087 55.7611 58.47 55.2866L70.3595 43.066C71.213 42.1893 71.2136 40.8187 70.3607 39.9415Z"
          fill="white"/>
    <defs>
        <linearGradient id="paint0_linear" x1="30" y1="13" x2="105" y2="99" gradientUnits="userSpaceOnUse">
            <stop stop-color="#5DD4E8"/>
            <stop offset="1" stop-color="#76F3B5"/>
        </linearGradient>
    </defs>
</svg>

<svg width="89" height="79" fill="none" xmlns="http://www.w3.org/2000/svg"><rect width="89" height="79" rx="20" fill="url(#a)"/><rect x=".5" y=".5" width="88" height="78" rx="19.5" stroke="#FAFAFA" stroke-opacity=".1"/><path d="M50 30 40 53" stroke="#022AF0" stroke-width="5" stroke-linecap="round"/><path d="M34.844 27.621a2.394 2.394 0 0 0-3.314.093l-11.89 12.22a2.226 2.226 0 0 0 0 3.125l11.889 12.227a2.372 2.372 0 0 0 1.705.714c.578 0 1.156-.205 1.61-.62a2.228 2.228 0 0 0 .096-3.217L24.57 41.498l10.369-10.66a2.229 2.229 0 0 0-.095-3.217Zm35.517 12.32L58.47 27.714a2.396 2.396 0 0 0-3.315-.093 2.229 2.229 0 0 0-.096 3.217l10.37 10.665-10.37 10.659a2.228 2.228 0 0 0 .096 3.217 2.374 2.374 0 0 0 1.609.621 2.37 2.37 0 0 0 1.705-.713l11.89-12.221a2.227 2.227 0 0 0 0-3.125Z" fill="#fff"/><defs><linearGradient id="a" x1="30" y1="13" x2="105" y2="99" gradientUnits="userSpaceOnUse"><stop stop-color="#5DD4E8"/><stop offset="1" stop-color="#76F3B5"/></linearGradient></defs></svg>
